svgs/inter.svg

<svg width="192" height="192" viewBox="0 0 192 192" fill="none" xmlns="http://www.w3.org/2000/svg"><path d="M27 117V88h-5" stroke="#000" stroke-width="12" stroke-linecap="round" stroke-linejoin="round"/><circle cx="27" cy="73" r="6" fill="#000"/><path d="M45 87.5v11m0 18.5V98.5m0 0c0-15.5 26-15.5 26 0V117m17-41v11.5m13 29.5c-8 3-13 .012-13-5.5v-24m0 0h10m14.5 15h29c0-8.008-6.492-14.5-14.5-14.5s-14.5 6.492-14.5 14.5Zm0 0c0 7.262 5.477 15.258 14.5 15.5 6.029.162 11-2.5 11-2.5M157 90v13.25m0 13.75v-13.75m13-11.75c-6.5 0-13 3-13 11.75" stroke="#000" stroke-width="12" stroke-linecap="round" stroke-linejoin="round"/></svg>

<svg id="vector" xmlns="http://www.w3.org/2000/svg" width="192" height="192" viewBox="0 0 192 192"><path fill="#00000000" d="M27,117V88H22" stroke-linejoin="round" stroke-width="12" stroke="#000000" stroke-linecap="round" id="path_0"/><path fill="#000000" d="M27,73m-6,0a6,6 0,1 1,12 0a6,6 0,1 1,-12 0" id="path_1"/><path fill="#00000000" d="M45,87.5C45,87.5 45,94.204 45,98.5M45,117C45,117 45,105.725 45,98.5M45,98.5C45,83 71,83 71,98.5C71,114 71,117 71,117" stroke-linejoin="round" stroke-width="12" stroke="#000000" stroke-linecap="round" id="path_2"/><path fill="#00000000" d="M88,76V87.5M101,117C93,120 88,117.012 88,111.5C88,104 88,87.5 88,87.5M88,87.5H98" stroke-linejoin="round" stroke-width="12" stroke="#000000" stroke-linecap="round" id="path_3"/><path fill="#00000000" d="M112.5,102.5C120.5,102.5 141.5,102.5 141.5,102.5C141.5,94.492 135.008,88 127,88C118.992,88 112.5,94.492 112.5,102.5ZM112.5,102.5C112.5,109.762 117.977,117.758 127,118C133.029,118.162 138,115.5 138,115.5" stroke-linejoin="round" stroke-width="12" stroke="#000000" stroke-linecap="round" id="path_4"/><path fill="#00000000" d="M157,90C157,90 157,98.076 157,103.25M157,117C157,117 157,108.62 157,103.25M170,91.5C163.5,91.5 157,94.5 157,103.25" stroke-linejoin="round" stroke-width="12" stroke="#000000" stroke-linecap="round" id="path_5"/></svg>
